icons/4x-playback-speed-16.svg

<svg id="icons" xmlns="http://www.w3.org/2000/svg" viewBox="0 0 16 16"><path d="M8,12h2V11H8V2L1,12H7v2H8ZM7,5.08789V11H2.90625ZM16,6,14.14072,8.498,16,11H14.72443L13.502,9.357,12.27948,11H11.002l1.86124-2.502L11.00489,6h1.27759L13.502,7.639,14.72143,6Z"/><path fill="none" d="M0 0h16v16H0z"/></svg>

<svg xmlns="http://www.w3.org/2000/svg" viewBox="0 0 16 16"><path d="M8 12h2v-1H8V2L1 12h6v2h1zM7 5.088V11H2.906zM16 6l-1.86 2.498L16 11h-1.276l-1.222-1.643L12.279 11h-1.277l1.861-2.502L11.005 6h1.277l1.22 1.639L14.722 6z"/><path fill="none" d="M0 0h16v16H0z"/></svg>
